X:103
T: GOENSTIGER HERR UND FREUND
N: E1142
O: Europa, Mitteleuropa, Deutschland
R: Trink -, Zech - Lied
M: 4/4
L: 1/4
K: F
A | AAAA | A3
A | AGAB | c2z
G | GGGG | G3
c | BAG2 | F2z
F | FFFF | F3
F | FGAB | c2z
G | GGGG | E2z
F | FFG2 | F3

